img/svg/net/sogou.svg

<?xml version="1.0" encoding="iso-8859-1"?>
<!-- Generator: Adobe Illustrator 21.0.2, SVG Export Plug-In . SVG Version: 6.00 Build 0)  -->
<svg version="1.1" id="&#x56FE;&#x5C42;_1" xmlns="http://www.w3.org/2000/svg" xmlns:xlink="http://www.w3.org/1999/xlink" x="0px"
	 y="0px" viewBox="0 0 16 16" style="enable-background:new 0 0 16 16;" xml:space="preserve">
<path d="M8,1C4.134,1,1,4.134,1,8c0,3.866,3.134,7,7,7s7-3.134,7-7C15,4.134,11.866,1,8,1z M7.578,12.407
	c-0.343,0.209-0.714,0.304-1.116,0.326c-0.844,0.047-1.601-0.193-2.3-0.645c-0.513-0.332-0.857-0.815-1.169-1.327
	c-0.379-0.622-0.631-1.295-0.756-2.008C2.136,8.176,2.135,7.593,2.222,7.007C2.364,6.05,2.728,5.188,3.294,4.413
	c0.454-0.62,1.029-1.112,1.694-1.499c0.404-0.235,0.829-0.421,1.277-0.555C6.042,2.456,5.838,2.585,5.647,2.733
	C5.102,3.154,4.764,3.715,4.561,4.362C4.297,5.204,4.335,6.026,4.716,6.836c0.275,0.587,0.691,1.038,1.207,1.411
	c0.49,0.355,1.006,0.674,1.473,1.06c0.366,0.303,0.706,0.636,0.887,1.091C8.561,11.097,8.202,12.028,7.578,12.407z M13.291,10.452
	c-0.259,0.505-0.597,0.952-0.988,1.365c-0.467,0.492-1.001,0.885-1.607,1.182c-0.375,0.184-0.767,0.329-1.179,0.421
	c0.422-0.188,0.772-0.47,1.072-0.813c0.477-0.544,0.808-1.167,0.945-1.88c0.224-1.159-0.161-2.126-0.96-2.96
	C10.2,7.374,9.738,7.099,9.305,6.783C8.777,6.396,8.257,6.001,7.84,5.486C7.303,4.822,7.33,4.061,7.895,3.422
	C8.234,3.039,8.648,2.794,9.15,2.734c0.439-0.052,0.875,0.001,1.303,0.139c0.754,0.243,1.406,0.649,1.943,1.222
	c0.75,0.8,1.242,1.748,1.462,2.822c0.097,0.474,0.096,0.959,0.049,1.445C13.834,9.101,13.628,9.795,13.291,10.452z"/>
</svg>

<svg xmlns="http://www.w3.org/2000/svg" viewBox="0 0 16 16"><title>sogou</title><path d="M8,1a7,7,0,1,0,7,7A7,7,0,0,0,8,1ZM7.58,12.41a2.35,2.35,0,0,1-1.12.33,3.76,3.76,0,0,1-2.3-.65A3.92,3.92,0,0,1,3,10.76a5.75,5.75,0,0,1-.76-2A5.43,5.43,0,0,1,2.22,7,5.77,5.77,0,0,1,3.29,4.41,5.48,5.48,0,0,1,5,2.91a5.89,5.89,0,0,1,1.28-.56,2.91,2.91,0,0,0-.62.37A3.2,3.2,0,0,0,4.56,4.36a3.3,3.3,0,0,0,.15,2.47A3.63,3.63,0,0,0,5.92,8.25c.49.35,1,.67,1.47,1.06a2.8,2.8,0,0,1,.89,1.09A1.76,1.76,0,0,1,7.58,12.41Zm5.71-2a5.9,5.9,0,0,1-1,1.36A5.59,5.59,0,0,1,10.7,13a5.28,5.28,0,0,1-1.18.42,3.1,3.1,0,0,0,1.07-.81,4,4,0,0,0,.95-1.88,3.21,3.21,0,0,0-1-3,9.06,9.06,0,0,0-1.27-1,7.54,7.54,0,0,1-1.47-1.3A1.49,1.49,0,0,1,7.9,3.42a2,2,0,0,1,1.25-.69,3,3,0,0,1,1.3.14A4.52,4.52,0,0,1,12.4,4.1a5.76,5.76,0,0,1,1.46,2.82,4.82,4.82,0,0,1,0,1.44A5.76,5.76,0,0,1,13.29,10.45Z"/></svg>
